inst/assets/svg/wi-fahrenheit.svg

<?xml version="1.0" encoding="UTF-8"?>
<svg xmlns="http://www.w3.org/2000/svg" xmlns:xlink="http://www.w3.org/1999/xlink" width="30pt" height="30pt" viewBox="0 0 30 30" version="1.1">
<g id="surface231">
<path style=" stroke:none;fill-rule:nonzero;fill:rgb(0%,0%,0%);fill-opacity:1;" d="M 9.671875 11.011719 C 9.671875 10.511719 9.851563 10.078125 10.199219 9.730469 C 10.550781 9.378906 10.980469 9.199219 11.480469 9.199219 C 11.96875 9.199219 12.398438 9.378906 12.75 9.730469 C 13.101563 10.089844 13.28125 10.511719 13.28125 11.011719 C 13.28125 11.511719 13.101563 11.941406 12.75 12.300781 C 12.398438 12.660156 11.96875 12.839844 11.480469 12.839844 C 10.988281 12.839844 10.558594 12.660156 10.199219 12.300781 C 9.851563 11.941406 9.671875 11.511719 9.671875 11.011719 Z M 10.550781 11.011719 C 10.550781 11.269531 10.640625 11.488281 10.820313 11.679688 C 11.011719 11.871094 11.230469 11.960938 11.488281 11.960938 C 11.75 11.960938 11.96875 11.871094 12.160156 11.679688 C 12.351563 11.488281 12.441406 11.269531 12.441406 11.011719 C 12.441406 10.75 12.351563 10.53125 12.160156 10.351563 C 11.96875 10.171875 11.75 10.070313 11.488281 10.070313 C 11.230469 10.070313 11.011719 10.160156 10.820313 10.339844 C 10.640625 10.519531 10.550781 10.738281 10.550781 11.011719 Z M 14.960938 17.898438 C 14.960938 18.039063 15.011719 18.171875 15.109375 18.269531 C 15.210938 18.371094 15.339844 18.421875 15.480469 18.421875 C 15.621094 18.421875 15.75 18.371094 15.851563 18.269531 C 15.949219 18.171875 16 18.039063 16 17.898438 L 16 14.109375 L 18.859375 14.109375 C 19 14.109375 19.128906 14.058594 19.230469 13.949219 C 19.328125 13.839844 19.378906 13.71875 19.378906 13.570313 C 19.378906 13.421875 19.328125 13.300781 19.230469 13.191406 C 19.128906 13.089844 19 13.039063 18.851563 13.039063 L 15.988281 13.039063 L 15.988281 10.308594 L 19.808594 10.308594 C 19.949219 10.308594 20.070313 10.261719 20.171875 10.160156 C 20.269531 10.058594 20.308594 9.929688 20.308594 9.78125 C 20.308594 9.628906 20.261719 9.511719 20.171875 9.398438 C 20.078125 9.289063 19.960938 9.25 19.808594 9.25 L 15.039063 9.25 C 14.96875 9.25 14.941406 9.289063 14.941406 9.359375 L 14.941406 17.898438 Z M 14.960938 17.898438 "/>
</g>
</svg>

<?xml version="1.0" encoding="utf-8"?>
<!-- Generator: Adobe Illustrator 22.0.1, SVG Export Plug-In . SVG Version: 6.00 Build 0)  -->
<svg version="1.1" id="Layer_1" xmlns="http://www.w3.org/2000/svg" xmlns:xlink="http://www.w3.org/1999/xlink" x="0px" y="0px"
	 viewBox="0 0 30 30" style="enable-background:new 0 0 30 30;" xml:space="preserve">
<path d="M9.67,11.01c0-0.5,0.18-0.93,0.53-1.28s0.78-0.53,1.28-0.53c0.49,0,0.92,0.18,1.27,0.53c0.35,0.36,0.53,0.78,0.53,1.28
	c0,0.5-0.18,0.93-0.53,1.29c-0.35,0.36-0.78,0.54-1.27,0.54s-0.92-0.18-1.28-0.54C9.85,11.94,9.67,11.51,9.67,11.01z M10.55,11.01
	c0,0.26,0.09,0.48,0.27,0.67c0.19,0.19,0.41,0.28,0.67,0.28s0.48-0.09,0.67-0.28s0.28-0.41,0.28-0.67c0-0.26-0.09-0.48-0.28-0.66
	c-0.19-0.18-0.41-0.28-0.67-0.28c-0.26,0-0.48,0.09-0.67,0.27C10.64,10.52,10.55,10.74,10.55,11.01z M14.96,17.9
	c0,0.14,0.05,0.27,0.15,0.37s0.23,0.15,0.37,0.15c0.14,0,0.27-0.05,0.37-0.15c0.1-0.1,0.15-0.23,0.15-0.37v-3.79h2.86
	c0.14,0,0.27-0.05,0.37-0.16s0.15-0.23,0.15-0.38c0-0.15-0.05-0.27-0.15-0.38c-0.1-0.1-0.23-0.15-0.38-0.15h-2.86v-2.73h3.82
	c0.14,0,0.26-0.05,0.36-0.15s0.14-0.23,0.14-0.38s-0.05-0.27-0.14-0.38s-0.21-0.15-0.36-0.15h-4.77c-0.07,0-0.1,0.04-0.1,0.11V17.9z
	"/>
</svg>
